Catalina-light/actions/16/transform-scale-horizontal.svg

<svg xmlns="http://www.w3.org/2000/svg" width="24" height="24" viewBox="0 0 24 24">
 <defs>
  <style id="current-color-scheme" type="text/css">
   .ColorScheme-Text { color:#5c616c; } .ColorScheme-Highlight { color:#5294e2; }
  </style>
 </defs>
 <path style="fill:currentColor" class="ColorScheme-Text" d="M 0.5078125 3.0078125 A 0.50005 0.50005 0 0 0 0.0078125 3.5078125 L 0.0078125 20.492188 A 0.50005 0.50005 0 0 0 0.5078125 20.992188 L 7.5117188 20.992188 L 16.486328 20.992188 L 23.492188 20.992188 A 0.50005 0.50005 0 0 0 23.992188 20.492188 L 23.992188 3.5078125 A 0.50005 0.50005 0 0 0 23.492188 3.0078125 L 16.486328 3.0078125 L 7.5117188 3.0078125 L 0.5078125 3.0078125 z M 1.0078125 4.0078125 L 7.0117188 4.0078125 L 7.0117188 15.080078 L 3.9609375 15.080078 L 3.9609375 13.080078 L 1.0078125 15.541016 L 1.0078125 4.0078125 z M 8.0117188 4.0078125 L 15.986328 4.0078125 L 15.986328 15.080078 L 8.0117188 15.080078 L 8.0117188 4.0078125 z M 16.986328 4.0078125 L 22.992188 4.0078125 L 22.992188 15.541016 L 20.039062 13.080078 L 20.039062 15.080078 L 16.986328 15.080078 L 16.986328 4.0078125 z M 1.0078125 15.619141 L 3.9609375 18.080078 L 3.9609375 16.080078 L 7.0117188 16.080078 L 7.0117188 19.992188 L 1.0078125 19.992188 L 1.0078125 15.619141 z M 22.992188 15.619141 L 22.992188 19.992188 L 16.986328 19.992188 L 16.986328 16.080078 L 20.039062 16.080078 L 20.039062 18.080078 L 22.992188 15.619141 z M 8.0117188 16.080078 L 15.986328 16.080078 L 15.986328 19.992188 L 8.0117188 19.992188 L 8.0117188 16.080078 z"/>
 <path style="fill:currentColor;opacity:0.3" class="ColorScheme-Text" d="M 1 4 L 1 20 L 23 20 L 23 4 L 1 4 z"/>
</svg>

<svg width="24" height="24" viewBox="0 0 24 24" xmlns="http://www.w3.org/2000/svg">
<defs>
<style id="current-color-scheme" type="text/css">.ColorScheme-Text { color:#5c616c; } .ColorScheme-Highlight { color:#5294e2; }</style>
</defs>
<path class="ColorScheme-Text" d="m0.50781 3.0078a0.50005 0.50005 0 0 0-0.5 0.5v16.984a0.50005 0.50005 0 0 0 0.5 0.5h7.0039 8.9746 7.0059a0.50005 0.50005 0 0 0 0.5-0.5v-16.984a0.50005 0.50005 0 0 0-0.5-0.5h-7.0059-8.9746-7.0039zm0.5 1h6.0039v11.072h-3.0508v-2l-2.9531 2.4609v-11.533zm7.0039 0h7.9746v11.072h-7.9746v-11.072zm8.9746 0h6.0059v11.533l-2.9531-2.4609v2h-3.0527v-11.072zm-15.979 11.611 2.9531 2.4609v-2h3.0508v3.9121h-6.0039v-4.373zm21.984 0v4.373h-6.0059v-3.9121h3.0527v2l2.9531-2.4609zm-14.98 0.46094h7.9746v3.9121h-7.9746v-3.9121z" fill="currentColor"/>
<path class="ColorScheme-Text" d="m1 4v16h22v-16h-22z" fill="currentColor" opacity=".3"/>
</svg>
